packages/elvis-assets-icons/icons/svg/src/pie_chart.svg

<svg width="24" height="24" viewBox="0 0 24 24" fill="none" xmlns="http://www.w3.org/2000/svg">
<path d="M13.5 10.5C13.086 10.5 12.75 10.164 12.75 9.75V0.75C12.75 0.336 13.087 0 13.5 0C18.876 0 23.25 4.374 23.25 9.75C23.25 10.164 22.914 10.5 22.5 10.5H13.5ZM21.716 9C21.357 5.071 18.179 1.893 14.25 1.534V9H21.716Z" fill="black"/>
<path d="M10.501 24C7.89699 24 5.44899 22.986 3.60699 21.145C1.76499 19.304 0.750992 16.855 0.750992 14.251C0.750992 11.647 1.76499 9.198 3.60599 7.357C5.44699 5.515 7.89599 4.5 10.5 4.5C10.697 4.5 10.891 4.58 11.03 4.72C11.172 4.862 11.25 5.05 11.25 5.25V13.991L16.651 20.864C16.775 21.021 16.83 21.218 16.806 21.417C16.782 21.616 16.682 21.794 16.525 21.917C14.815 23.26 12.676 24 10.501 24ZM9.74999 6.034C7.83199 6.207 6.03899 7.044 4.66699 8.417C3.10899 9.975 2.25099 12.047 2.25099 14.251C2.25099 16.455 3.10899 18.526 4.66799 20.084C6.22599 21.642 8.29799 22.5 10.501 22.5C12.081 22.5 13.658 22.031 14.987 21.173L9.91099 14.713C9.80799 14.581 9.75099 14.417 9.75099 14.25V6.034H9.74999Z" fill="black"/>
<path d="M19.061 20.577C18.829 20.577 18.614 20.473 18.471 20.29L12.91 13.213C12.733 12.988 12.701 12.678 12.826 12.421C12.95 12.166 13.215 12 13.5 12H22.5C22.913 12 23.25 12.336 23.25 12.749C23.252 15.762 21.894 18.557 19.524 20.416C19.393 20.52 19.229 20.577 19.061 20.577ZM19.167 18.748C20.646 17.36 21.54 15.521 21.718 13.5H15.044L19.167 18.748Z" fill="#29D305"/>
</svg>

<svg width="24" height="24" fill="none" xmlns="http://www.w3.org/2000/svg"><path d="M13.5 10.5a.75.75 0 01-.75-.75v-9A.75.75 0 0113.5 0c5.376 0 9.75 4.374 9.75 9.75a.75.75 0 01-.75.75h-9zM21.716 9c-.359-3.929-3.537-7.107-7.466-7.466V9h7.466z" fill="#000"/><path d="M10.501 24a9.688 9.688 0 01-6.894-2.855 9.683 9.683 0 01-2.856-6.894 9.687 9.687 0 012.855-6.894A9.684 9.684 0 0110.5 4.5a.753.753 0 01.75.75v8.741l5.401 6.873a.743.743 0 01.155.553.745.745 0 01-.281.5A9.795 9.795 0 0110.501 24zM9.75 6.034a8.216 8.216 0 00-5.083 2.383 8.196 8.196 0 00-2.416 5.834 8.19 8.19 0 002.417 5.833 8.196 8.196 0 005.833 2.416c1.58 0 3.157-.469 4.486-1.327l-5.076-6.46a.756.756 0 01-.16-.463V6.034H9.75z" fill="#000"/><path d="M19.061 20.577a.743.743 0 01-.59-.287l-5.561-7.077a.753.753 0 01-.084-.792A.755.755 0 0113.5 12h9a.75.75 0 01.75.749 9.677 9.677 0 01-3.726 7.667.746.746 0 01-.463.161zm.106-1.829a8.116 8.116 0 002.551-5.248h-6.674l4.123 5.248z" fill="#29D305"/></svg>
